X:1
T:Verbum caro
T:Victoria
T:Verbum caro
T:Copyright © 2014 by CPDL.  This edition can be fully distributed, duplicated, performed, and recorded 
T:Copyright © 2014 by CPDL.  This edition can be fully distributed, duplicated, performed, and recorded 
T:Copyright © 2014 by CPDL.  This edition can be fully distributed, duplicated, performed, and recorded 
T:Copyright © 2014 by CPDL.  This edition can be fully distributed, duplicated, performed, and recorded 
T:Copyright © 2014 by CPDL.  This edition can be fully distributed, duplicated, performed, and recorded 
C:Victoria
Z:Copyright © 2014 by CPDL.  This edition can be fully distributed, duplicated, performed, and recorded
%%score [ 1 2 3 ]
L:1/8
Q:1/2=92
M:4/2
K:Eb
V:1 treble nm="Soprano" snm="S."
V:2 treble nm="Alto" snm="A."
V:3 treble-8 transpose=-12 nm="Tenor" snm="T."
V:1
 z16 | z16 | z8 E8- | E8 F8 | G8 G8- | G8 z8 | G16 | (F8 G8) | A12 G4 | A8 G4 F4 | G4 F2 E2 F8 | %11
w: ||Ver-|* bum|ca- ro,|_|pa-|nem _|ve- *|||
 E8 z8 | z16 | z8 E8- | E8 F8 | G8 E4 F4- | F2 E2 E8 D4 | E8 z8 | z16 | E16 | G8 B8 | B8 c8- | %22
w: rum,||ver-|* bo|car- nem ef-|* * * fi-|cit:||fit-|que san-|guis Chri-|
 c4 c4 B8- | (B4 =A2 G2 A8) | B16 | z16 | B16 | c8 e8- | e4 d4 c8- | c8 e8 | d4 c2 B2 c8 | B8 z8 | %32
w: * sti me-||rum,||et|si sen-|* sus de-|* fi-|cit, _ _ _|_|
 z16 | z8 E8- | E8 F8 | G12 G4 | G16 | (F8 G8) | A16 | G16 | z8 E8- | E8 F8 | G8 E4 F4- | %43
w: |ad|_ fir-|man- dum|cor|sin- *|ce-|rum|so-|* la|fi- des suf-|
 F2 E2 E8 D4 | E4 B4 c8 | A4 F4 (B8 | G8 A8-) | A8 F8 | E16- | E16- | E16- | E16 |] %52
w: * * * fi-|cit, so- la|fi- des suf-||* fi-|cit.|_|||
V:2
 B,16 | C8 D8 | B,4 (E6 D2 C4) | A,4 (E8 D4) | E8 z8 | z4 E4 (C4 B,4) | C6 B,2 C2 D2 E4- | %7
w: Ver-|bum ca-|ro, pa- * *|nem ve- *|rum,|pa- nem _|ve- * * * *|
 E4 D4 E2 D2 C2 B,2 | C8 A,4 E4 | (C6 D2 E4) F4- | F2 E2 E8 D4 | E4 B,4 (C4 D4) | %12
w: |* rum, pa-|nem _ _ ve-||rum, ver- bo _|
 E4 B,4 C2 D2 E4- | E4 D2 C2 B,4 C4 | B,4 C8 D4- | D4 E8 C4 | B,4 B,4 A,4 A4- | A4 G4 F8 | %18
w: car- nem ef- * *|* * * * fi-|cit, ver- bo|_ car- nem|ef- fi- cit: fit-|* que san-|
 E4 F4 C4 E4- | E2 D2 C2 B,2 C4 B,2 A,2 | B,4 E4 D4 G4- | G4 F4 E4 D4 | C2 D2 E2 C2 D2 E2 F4 | %23
w: guis Chri- sti me-||rum, fit- que san-|* guis Chri- sti|me- * * * * * *|
 E8 z4 E4 | F4 G8 F4 | E2 D2 E2 F2 G2 A2 B4- | B2 A2 G2 F2 G2 E2 B4- | B4 =A2 G2 A4 A4 | %28
w: rum, et|si sen- sus|de- * * * * * *||* * * * fi-|
 B4 B,4 C4 E4- | (E2 D2 C4) A,4 C4- | C2 B,2 B,8 =A,4 | B,8 E8- | E8 F8 | G12 G4 | G8 (C4 D4) | %35
w: cit, et si sen-|* * * sus de-|* * * fi-|cit, ad|_ fir-|man- dum|cor sin- *|
 E4 B,4 z4 B,4 | C4 E6 D2 C2 B,2 | A,4 B,4 E,4 E4 | F4 (A6 G2 F4) | E8 z4 E4 | F8 G8 | %41
w: ce- rum, cor|sin- ce- * * *|* * rum, cor|sin- ce- * *|rum so-|la fi-|
 C4 E8 D2 C2 | D4 E8 D4 | C8 z4 F4 | G8 E4 C4 | F2 G2 A2 F2 G4 F4- | F4 E2 D2 E2 C2 F4- | %47
w: des suf- * *|* * fi-|cit, so-|la fi- des|suf- * * * * *||
 F2 E2 E8 D4 | E4 B,4 C4 A,4- | A,4 G,4 A,6 B,2 | C4 B,4 C8- | C4 B,4 B,8 |] %52
w: * * * fi-|cit, so- la fi-|* des suf- *||* fi- cit.|
V:3
 z8 E8- | E8 F8 | G8 E4 A4- | A4 c4 B8 | E4 e4 (c4 B4) | c6 d2 e4 d4 | e6 d2 c2 B2 c4 | A4 B4 E8 | %8
w: Ver-|* bum|ca- ro, pa-|* nem ve-|rum, pa- nem _|ve- * * *||* * rum,|
 z4 A4 (F4 E4) | F2 G2 A2 B2 c4 _d4 | c8 B8 | E8 z4 B4 | (c4 d4) (e6 d2 | c4) B4 G4 A4 | %14
w: pa- nem _|ve- * * * * *||rum, ver-|bo _ car- *|* nem ef- fi-|
 E4 A8 B4- | B4 c8 A4 | G8 F8 | E4 e8 d4 | c4 B4 A4 G4 | A12 G2 F2 | E8 z4 e4- | e4 d4 c4 B4 | %22
w: cit: ver- bo|_ car- nem|ef- fi-|cit: fit- que|san- guis Chri- sti|me- * *|rum, fit-|* que san- guis|
 A8 B8 | c16 | B8 z4 B4 | c8 e8 | d4 (e8 d4 | c12) c4 | B8 z4 _A4 | c4 e8 A4 | B8 F8 | B8 z4 E4 | %32
w: Chri- sti|me-|rum, et|si sen-|sus de- *|* fi-|cit, et|si sen- sus|de- fi-|cit, ad|
 G4 (A6 G2 F4) | E4 B4 c4 e4- | e2 d2 c2 B2 A4 B4 | E8 z8 | z4 E4 e4 e4- | e4 d4 e2 d2 c2 B2 | %38
w: fir- man- * *|dum cor sin- ce-||rum,|cor sin- ce-||
 A4 F4 z4 A4 | c4 e6 d2 c2 B2 | A4 B4 E8 | A12 B4- | B4 c8 B4 | A8 F8 | E8 z8 | z8 z4 B4 | %46
w: * rum, cor|sin- ce- * * *|* * rum|so- la|_ fi- des|suf- fi-|cit,|so-|
 c8 A4 F4 | A8 B8 | E8 z8 | z4 B4 c4 A4- | A4 G4 A4 A4 | E16 |] %52
w: la fi- des|suf- fi-|cit,|so- la fi-|* des suf- fi-|cit.|

